svgs/duotone/section.svg

<svg xmlns="http://www.w3.org/2000/svg" viewBox="0 0 256 512"><!--! Font Awesome Pro 6.3.0 by @fontawesome - https://fontawesome.com License - https://fontawesome.com/license (Commercial License) Copyright 2023 Fonticons, Inc. --><defs><style>.fa-secondary{opacity:.4}</style></defs><path class="fa-primary" d="M254.3 281.5c-3.717 22.7-14.14 41.55-29.8 55.82c-20.25-17.14-47.07-27.4-71.27-35.1c16.81-2.969 34.64-10.83 37.93-31.04c4.529-27.53-7.682-37.06-72.39-56.62c0 0-14.88-4.562-15.81-4.852C98.08 208.2 92.67 206.5 86.97 204.5C86.69 204.4 86.39 204.3 86.11 204.2c-5.762-2.045-11.89-4.407-18.03-7.138c-.0469-.0215 .0469 .0195 0 0C55.52 191.5 42.6 184.2 31.47 174.7c-21.63-18.61-36.65-46.08-29.78-88.17c4.279-26.09 17.77-47.97 39.07-63.25c28.79-20.72 70.42-27.97 116.9-20.19c14.93 2.438 31.88 7.219 53.28 15.06c16.58 6.094 25.11 24.47 19.05 41.06c-6.059 16.62-24.45 25.06-41.04 19.06c-17.3-6.344-30.92-10.28-41.66-12.03C117.1 61.36 92.78 64.67 78.04 75.23C70.54 80.61 66.36 87.45 64.83 96.79C61.11 119.4 65.67 131.2 124.7 149.5l12.52 3.812C189.6 169.2 268.7 193.1 254.3 281.5z"/><path class="fa-secondary" d="M254.3 425.5c-5.496 33.38-26.07 59.69-58.02 74.12c-18.11 8.188-39.22 12.34-62.4 12.34c-11.4 0-23.33-1-35.54-3.032c-23.08-3.625-46.97-12.75-68.02-20.75l-9.463-3.594c-16.55-6.188-24.92-24.62-18.74-41.19c6.215-16.5 24.64-24.91 41.16-18.75l9.773 3.719c18.18 6.906 38.76 14.75 55.49 17.41c24.39 3.938 46.13 2.438 61.4-4.469c16.39-7.406 19.96-18.47 21.23-26.16c4.498-27.5-7.713-37.03-72.42-56.59l-12.99-3.967C67.36 342.7-12.59 317.9 1.686 230.5c3.721-22.71 14.18-41.5 29.78-55.83c22.29 19.18 51.51 28.89 71.45 35.1C86.05 212.7 68.13 220.5 64.83 240.8C61.11 263.4 65.67 275.2 124.7 293.5l12.52 3.812C189.6 313.2 268.7 337.1 254.3 425.5z"/></svg>

<svg xmlns="http://www.w3.org/2000/svg" viewBox="0 0 256 512"><!-- Font Awesome Pro 6.0.0-alpha2 by @fontawesome - https://fontawesome.com License - https://fontawesome.com/license (Commercial License) --><defs><style>.fa-secondary{opacity:.4}</style></defs><path d="M254.264 425.533C248.768 458.908 228.19 485.219 196.242 499.656C178.129 507.844 156.955 512 133.783 512C122.385 512 110.518 511 98.309 508.969C75.231 505.344 51.34 496.219 30.291 488.219L20.828 484.625C4.278 478.437 -4.092 460.002 2.092 443.439C8.307 426.939 26.731 418.533 43.252 424.689L53.026 428.408C71.201 435.314 91.781 443.158 108.52 445.814C132.91 449.752 154.645 448.252 169.916 441.346C186.311 433.939 189.871 422.877 191.151 415.189C195.649 387.691 183.438 378.16 118.733 358.598L105.74 354.631C67.36 342.725 -12.586 317.943 1.686 230.479C5.406 207.77 15.869 188.977 31.469 174.65C53.762 193.826 82.977 203.543 102.92 209.752C86.051 212.693 68.133 220.508 64.83 240.789C61.113 263.383 65.674 275.195 124.696 293.508L137.219 297.32C189.59 313.162 268.723 337.1 254.264 425.533Z" class="fa-secondary"/><path d="M254.258 281.539C250.542 304.24 240.118 323.086 224.456 337.361C204.206 320.223 177.385 309.957 153.184 302.262C169.994 299.293 187.823 291.428 191.114 271.227C195.643 243.695 183.432 234.166 118.727 214.604L105.735 210.635C104.85 210.361 103.842 210.041 102.915 209.752C98.079 208.246 92.661 206.51 86.965 204.506C86.682 204.406 86.389 204.299 86.104 204.199C80.342 202.154 74.288 199.824 68.145 197.094C68.098 197.072 68.049 197.049 68.003 197.029C55.444 191.432 42.592 184.223 31.467 174.652C9.835 156.045 -5.187 128.568 1.68 86.482C5.96 60.391 19.45 38.516 40.749 23.234C69.542 2.518 111.169 -4.732 157.637 3.049C172.565 5.486 189.522 10.268 210.915 18.109C227.497 24.203 236.022 42.578 229.963 59.172C223.905 75.795 205.51 84.232 188.928 78.232C171.628 71.889 158.012 67.953 147.27 66.203C117.977 61.359 92.776 64.672 78.036 75.232C70.54 80.607 66.356 87.451 64.825 96.795C61.108 119.389 65.669 131.199 124.69 149.512L137.213 153.324C189.585 169.168 268.717 193.104 254.258 281.539Z" class="fa-primary"/></svg>
